X:195
T: Sliabh Luachra Polka Set
S: "Barking Mad" - 4 Men and a Dog
Z: B.Black
M: 2/4
L: 1/8
K: D
P: Polka #1
FA AB | Ad d>B | AF FD/E/ | FE E2 |
FA AB | Ad d>B | AF EF/E/ | D4 :|
dA BA | dA BA | B>A Bd | e2 e2 |
df Bd | Ad FD | E>D EF | D2 D2 :|
W:
K: A
P: Polka #2
e2 c2 | BE A2 | BE AB | cB B2 |
e2 c2 | BE A2 | BE AB | cA A2 :|
ce a2 | gf f2 | ce fg | fe e2 |
ce a2 | gf f2 | ce fg | a2 a2 :|
W:
K: D
P: Polka #3
Ad BA | DF FE/D/ | CE GE | BA FD |
Ad BA | DF FE/D/ | CE GE | ED D2 :|
F2 G2 | BA FD | AG GE | BA FD |
F2 G2 | BA FD | AG GE | ED D2 :|
